!!!COM: Fanny (Mendelssohn) Hensel
!!!CNT: Deutsch
!!!TXO: Deutsch
!!!OTL: ""
!!!LYR: von Eichendorff, Joseph Freiherr
!!!OPR: Ankla2nge
!!!OPS: Op. 
!!!ONM: No. 2
!!!ENC: Emily Thomas
!!!YOR: Hensel: Ausgewa2hlte Lieder fu2r Singstimme und Klavier
!!!YOR: Breitkopf & Hartel, 1994 vol. 2
!!!ODT: 1841/
!!NB: Vocal melody and text encoded.
**kern	**silbe
=0-	=0
*clefG2	*
*k[f#c#g#d#]	*
*M4/4	*
*MM60	*
2r	.
{4b	{Ach!
4g#	wie
=1	=1
4.f#	ist
8f#	es
4f#	doch
4g#	ge-
=2	=2
4g#	-kom-
4a}	-men,}
{8c#	{dass
8e	|
8e	die
8a	|
=3	=3
8a	fer-
8cc#	|
8cc#	-ne
8ee	|
4.ee	Wal-
8cc#	-des-
=4	=4
4cc#	pracht
4b	|
4b	so
4g#	mein
=5	=5
4.f#	gan-
8f#	-zes
4f#	Herz
4g#	ge-
=6	=6
4g#	-nom-
8a}	-men,}
8r	.
{4.a	{mich
8ee	um
=7	=7
4.ee	al-
8g#	-le
4gn	Ruh
8gn	ge-
8ee	|
=8	=8
2ee}	-bracht,}
{4dd#	{mich
4cc#	um
=9	=9
4.b	al-
8b	-le
8b	Ruh
8b#	|
8cc#	ge-
8bn	|
=10	=10
2a	-bracht.
4g#}	|}
4r	.
=11	=11
1r	.
=12	=12
2r	.
{4ee	{Wenn
4ee	von
=13	=13
4.ee	dru2-
8ee	-ben
4dd#	Lie-
4cc#	-der
=14	=14
2cc#	we-
4b#}	-hen,}
4r	.
=15	=15
1r	.
=16	=16
{[2ee	{Wald-
8ee]	|
8b	|
8g#	-horn
8e	|
=17	=17
4.b	gar
8b	nicht
4b	en-
4a	-den
=18	=18
4gn}	will,}
4r	.
2r	.
=19	=19
2r	.
{4gn	{wises
8a	ich
8b	|
=20	=20
4cn}	nicht,}
4r	.
2r	.
=21	=21
4r	.
{4ccn	{wie
4ccn	mir
8ddn	ge-
8ee	|
=22	=22
2ee	-sche-
4ddn}	-hen,}
4r	.
=23	=23
4r	.
{2ddn	{weiss
4dd#	ich
=24	=24
2dd#	nicht,
4ee}	|}
4r	.
=25	=25
4r	.
{4ee	{wie
4dd#	mir
4ee	ge-
=26	=26
2gn	-sche-
4a#}	-hen,}
4r	.
=27	=27
{2.b	{und
4b#	im
=28	=28
2.cc#	Her-
4cc#	-zen
=29	=29
4cc#	bet
4aa	|
4gg#	|
4ff#	|
=30	=30
4ee	|
4dd#	|
4cc#	ich
4b	|
=31	=31
2a	still,
4g#}	|}
4r	.
=32	=32
2r	.
{2g#	{im
=33	=33
2g#	Her-
4b	-zen
4a	|
=34	=34
2.g#	bet
4f#	ich
=35	=35
4e}	still.}
4r	.
2r	.
==	==
*-	*-
